packages/core/src/svgs/tokens/mono/RAMP.svg

<svg width="24" height="24" viewBox="0 0 24 24" fill="none" xmlns="http://www.w3.org/2000/svg">
<path d="M14.6314 13.6182L11.9997 15.2298L9.36816 13.6182V10.3887L11.9997 8.77075L14.6314 10.3887V13.6182Z" fill="white"/>
<path d="M11.9999 2L3.57886 7.00316V16.9968L11.9999 22L20.421 16.9968V7.00316L11.9999 2ZM7.78938 14.4227V9.55265L11.9999 7.15631L16.2105 9.55265V14.4232L11.9688 16.8521L7.78938 14.4227ZM7.78938 17.2301V15.5395L13.4063 18.8327L11.9999 19.6721L7.78938 17.2301ZM18.3157 15.8358L14.3442 18.2778L12.8883 17.4069L17.263 14.9652V9.00947L11.9999 6.07948L6.73674 9.00947V16.5326L5.68411 15.7679V8.23159L11.9999 4.46421L18.3157 8.16369V15.8358Z" fill="white"/>
</svg>

<svg xmlns="http://www.w3.org/2000/svg" width="24" height="24" fill="none" viewBox="0 0 24 24">
    <path fill="#fff" d="M14.631 13.618 12 15.23l-2.632-1.612v-3.23L12 8.772l2.631 1.618z"/>
    <path fill="#fff" d="M12 2 3.579 7.003v9.994L11.999 22l8.422-5.003V7.003zM7.79 14.423v-4.87L12 7.156l4.21 2.397v4.87l-4.241 2.43zm0 2.807v-1.69l5.616 3.293-1.406.84zm10.526-1.394-3.972 2.442-1.456-.871 4.375-2.442V9.01L12 6.08 6.737 9.01v7.524l-1.053-.765V8.232L12 4.464l6.316 3.7z"/>
</svg>
